images/angle-double-up.svg

<svg width="259" height="251" viewBox="0 0 259 251" fill="none" xmlns="http://www.w3.org/2000/svg">
<path d="M129.281 99.7341C131.525 99.7341 133.51 100.597 135.236 102.323L255.897 222.984C257.623 224.71 258.486 226.695 258.486 228.939C258.486 231.184 257.623 233.169 255.897 234.895L242.95 247.841C241.224 249.567 239.239 250.431 236.995 250.431C234.751 250.431 232.766 249.567 231.04 247.841L129.281 146.082L27.5219 247.841C25.7957 249.567 23.8106 250.431 21.5665 250.431C19.3225 250.431 17.3374 249.567 15.6112 247.841L2.66475 234.895C0.938562 233.169 0.0754663 231.184 0.0754663 228.939C0.0754663 226.695 0.938562 224.71 2.66475 222.984L123.325 102.323C125.052 100.597 127.037 99.7341 129.281 99.7341ZM129.281 0.305546C131.525 0.305546 133.51 1.16864 135.236 2.89483L255.897 123.556C257.623 125.282 258.486 127.267 258.486 129.511C258.486 131.755 257.623 133.74 255.897 135.466L242.95 148.413C241.224 150.139 239.239 151.002 236.995 151.002C234.751 151.002 232.766 150.139 231.04 148.413L129.281 46.6538L27.5219 148.413C25.7957 150.139 23.8106 151.002 21.5665 151.002C19.3225 151.002 17.3374 150.139 15.6112 148.413L2.66475 135.466C0.938562 133.74 0.0754663 131.755 0.0754663 129.511C0.0754663 127.267 0.938562 125.282 2.66475 123.556L123.325 2.89483C125.052 1.16864 127.037 0.305546 129.281 0.305546Z" fill="black"/>
</svg>

<svg width="259" height="251" fill="none" xmlns="http://www.w3.org/2000/svg"><path d="M129.281 99.734c2.244 0 4.229.863 5.955 2.589l120.661 120.661c1.726 1.726 2.589 3.711 2.589 5.955 0 2.245-.863 4.23-2.589 5.956l-12.947 12.946c-1.726 1.726-3.711 2.59-5.955 2.59s-4.229-.864-5.955-2.59L129.281 146.082 27.521 247.841c-1.725 1.726-3.71 2.59-5.954 2.59-2.244 0-4.23-.864-5.956-2.59L2.665 234.895c-1.726-1.726-2.59-3.711-2.59-5.956 0-2.244.864-4.229 2.59-5.955l120.66-120.661c1.727-1.726 3.712-2.589 5.956-2.589Zm0-99.428c2.244 0 4.229.863 5.955 2.589l120.661 120.661c1.726 1.726 2.589 3.711 2.589 5.955s-.863 4.229-2.589 5.955l-12.947 12.947c-1.726 1.726-3.711 2.589-5.955 2.589s-4.229-.863-5.955-2.589L129.281 46.653l-101.76 101.76c-1.725 1.726-3.71 2.589-5.954 2.589-2.244 0-4.23-.863-5.956-2.589L2.665 135.466c-1.726-1.726-2.59-3.711-2.59-5.955s.864-4.229 2.59-5.955L123.325 2.895c1.727-1.726 3.712-2.59 5.956-2.59Z" fill="#000"/></svg>
